X: 42
T:Manchester
% Nottingham Music Database
S:Kevin Briggs
M:4/4
L:1/8
R:Hornpipe
K:D
A2/3B2/3c2/3|"D"dcdA FAdf|"Em"edcB "A7"A2g2|"D"fgaf "G"gfed|"Em"edcB "A7"Agfe|
"D"dcdA FAdf|"Em"edcB "A7"A2g2|"D"fgaf "A7"bgec|"D"d2f2 d2:|:

fg|"D"afaf d2ga|"G"bgbg "A7"e2fg|"D"afba "G"gfed|"Em"edcB "A7"Agfe|
"D"dcdA FAdf|"Em"edcB "A7"A2g2|"D"fgaf "A7"bgec|"D"d2f2 d2:|


